X:370
T:Reel 370
M:4/4
K:Gmaj
L:1/8
BA|G2BG AGBA|GABG AEEF|G2BG AGBe|defd cAFA|G2BG AcBA|G2BG AEEF|G2BG ABce|dBAB G4| (3def |g2ge d2Bd|gabg agef|gdBd edBe|dcBA G2 (3def |gdBd edBd|gdBG AGEA|GABc dege|dBAB G2|
